assets/img/sfera-logo.svg

<svg width="247" height="40" viewBox="0 0 247 40" fill="none" xmlns="http://www.w3.org/2000/svg">
<g filter="url(#filter0_i_6961_2109)">
<path d="M14.4968 22.9517L14.3307 22.8966L14.0538 22.8414L14.0049 22.8287C12.72 22.4948 10.371 21.8846 8.18405 20.4138C5.08304 18.3724 3.36641 15.3931 3.20029 11.6966C3.03416 8.6069 4.03092 5.90345 6.02442 3.8069C8.90393 0.827586 13.0571 0 15.0506 0C20.6888 0 23.844 2.03414 26.6643 3.85237L26.6793 3.86207L27.953 4.68965L23.9106 11.2552L22.5262 10.3724L22.468 10.335C20.0091 8.7561 18.4021 7.72414 15.0506 7.72414C14.5522 7.72414 12.6141 8.11035 11.6173 9.15862C11.2851 9.48965 10.8974 10.0966 10.9528 11.3655C11.0082 13.3517 12.3926 14.4552 15.9366 15.3379C16.3796 15.4483 16.7118 15.5586 17.0441 15.669C20.7542 16.9379 23.6337 18.6483 25.6272 20.8C27.6207 23.0069 28.6729 25.6 28.6729 28.3586C28.6729 31.0621 27.51 33.8759 25.5718 36.0276C23.3015 38.5655 20.1451 40 16.6564 40C14.9398 40 12.6141 39.8897 9.8453 39.0621C6.35667 37.9586 3.25566 36.0276 0.597656 33.2138L6.24592 27.9172C10.3437 32.2759 14.9398 32.2759 16.6564 32.2759C19.8682 32.2759 20.9203 29.3517 20.9203 28.3586C20.9203 26.2621 18.5392 24.331 14.4968 22.9517Z" fill="white"/>
<path d="M53.297 0.551724H79.1572V8.27586H61.0496V15.3931H76.0009V23.1172H61.0496V39.2276H53.297V0.551724Z" fill="white"/>
<path d="M104.645 0.551724H130.505V8.27586H104.645V0.551724Z" fill="white"/>
<path d="M126.075 23.1724H104.645V15.4483H126.075V23.1724Z" fill="white"/>
<path d="M130.339 39.2276H104.645V31.5035H130.339V39.2276Z" fill="white"/>
<path d="M175.285 12.1379C175.285 9.98621 173.569 8.22069 171.409 8.22069H163.989V39.1724H156.236V0.496552H171.409C177.833 0.496552 183.038 5.73793 183.038 12.1379C183.038 16.8276 180.269 20.8552 176.227 22.6759L183.924 39.2276H175.673L168.419 23.7241V16H171.409C173.569 16 175.285 14.2897 175.285 12.1379Z" fill="white"/>
<path d="M206.031 39.2276L225.8 0.551724H228.07L246.399 39.2276H237.816L235.235 33.7495H225.687V27.1524H232.126L226.741 15.7241L214.725 39.2276H206.031Z" fill="white"/>
</g>
<defs>
<filter id="filter0_i_6961_2109" x="0.597656" y="0" width="246.516" height="42.5671" filterUnits="userSpaceOnUse" color-interpolation-filters="sRGB">
<feFlood flood-opacity="0" result="BackgroundImageFix"/>
<feBlend mode="normal" in="SourceGraphic" in2="BackgroundImageFix" result="shape"/>
<feColorMatrix in="SourceAlpha" type="matrix" values="0 0 0 0 0 0 0 0 0 0 0 0 0 0 0 0 0 0 127 0" result="hardAlpha"/>
<feOffset dx="0.715292" dy="2.86117"/>
<feGaussianBlur stdDeviation="1.28355"/>
<feComposite in2="hardAlpha" operator="arithmetic" k2="-1" k3="1"/>
<feColorMatrix type="matrix" values="0 0 0 0 0 0 0 0 0 0 0 0 0 0 0 0 0 0 0.5 0"/>
<feBlend mode="normal" in2="shape" result="effect1_innerShadow_6961_2109"/>
</filter>
</defs>
</svg>

<svg xmlns="http://www.w3.org/2000/svg" width="247" height="40" fill="none"><g fill="#fff" filter="url(#a)"><path d="m14.497 22.952-.166-.055-.277-.056-.05-.012c-1.284-.334-3.633-.944-5.82-2.415-3.101-2.042-4.818-5.02-4.984-8.717-.166-3.09.83-5.794 2.824-7.89C8.904.827 13.057 0 15.051 0c5.638 0 8.793 2.034 11.613 3.852l.015.01 1.274.828-4.042 6.565-1.385-.883-.058-.037c-2.459-1.579-4.066-2.61-7.417-2.61-.499 0-2.437.385-3.434 1.434-.332.33-.72.938-.664 2.207.055 1.986 1.44 3.09 4.984 3.972.443.11.775.22 1.107.331 3.71 1.269 6.59 2.98 8.583 5.131 1.994 2.207 3.046 4.8 3.046 7.559 0 2.703-1.163 5.517-3.101 7.669C23.302 38.566 20.145 40 16.656 40c-1.716 0-4.042-.11-6.81-.938-3.49-1.103-6.59-3.034-9.248-5.848l5.648-5.297c4.098 4.359 8.694 4.359 10.41 4.359 3.212 0 4.264-2.924 4.264-3.917 0-2.097-2.38-4.028-6.423-5.407ZM53.297.552h25.86v7.724H61.05v7.117H76v7.724H61.05v16.11h-7.753V.553ZM104.645.552h25.86v7.724h-25.86V.552ZM126.075 23.172h-21.43v-7.724h21.43v7.724ZM130.339 39.228h-25.694v-7.725h25.694v7.725ZM175.285 12.138c0-2.152-1.716-3.917-3.876-3.917h-7.42v30.951h-7.753V.497h15.173c6.424 0 11.629 5.24 11.629 11.64 0 4.69-2.769 8.718-6.811 10.539l7.697 16.552h-8.251l-7.254-15.504V16h2.99c2.16 0 3.876-1.71 3.876-3.862ZM206.031 39.228 225.8.552h2.27l18.329 38.676h-8.583l-2.581-5.479h-9.548v-6.597h6.439l-5.385-11.428-12.016 23.504h-8.694Z"/></g><defs><filter id="a" width="246.516" height="42.567" x=".598" y="0" color-interpolation-filters="sRGB" filterUnits="userSpaceOnUse"><feFlood flood-opacity="0" result="BackgroundImageFix"/><feBlend in="SourceGraphic" in2="BackgroundImageFix" result="shape"/><feColorMatrix in="SourceAlpha" result="hardAlpha" values="0 0 0 0 0 0 0 0 0 0 0 0 0 0 0 0 0 0 127 0"/><feOffset dx=".715" dy="2.861"/><feGaussianBlur stdDeviation="1.284"/><feComposite in2="hardAlpha" k2="-1" k3="1" operator="arithmetic"/><feColorMatrix values="0 0 0 0 0 0 0 0 0 0 0 0 0 0 0 0 0 0 0.5 0"/><feBlend in2="shape" result="effect1_innerShadow_6961_2109"/></filter></defs></svg>
